svgs/opera_mini.svg

<svg width="192" height="192" viewBox="0 0 192 192" fill="none" xmlns="http://www.w3.org/2000/svg"><g clip-path="url(#a)"><path d="M106 122c0-8.837 7.163-16 16-16h32c8.837 0 16 7.163 16 16v32c0 8.837-7.163 16-16 16h-32c-8.837 0-16-7.163-16-16v-32Z" stroke="#000" stroke-width="12"/><path fill-rule="evenodd" clip-rule="evenodd" d="M28 96c0-37.555 30.445-68 68-68 1.506 0 3 .049 4.483.145-24.668 7.224-42.66 31.84-45.18 60.848a80.73 80.73 0 0 0-.29 8.423c.032 1.885.13 3.75.29 5.591C57.45 127.722 70.83 149.25 90 159.548v-19.549c-5.012-1.688-9.798-5.497-13.802-11.332C70.634 120.56 67 109.028 67 96c0-13.028 3.634-24.56 9.198-32.667C81.781 55.197 88.885 51 96 51s14.219 4.197 19.802 12.333c4.693 6.838 8.013 16.113 8.937 26.667h12.039c-.952-12.807-4.928-24.49-11.082-33.458-5.626-8.198-13.341-14.438-22.397-16.66A40.708 40.708 0 0 1 115.5 38c17.442 0 33.373 11.334 41.928 28.797a67.578 67.578 0 0 1 6.316 23.265 23.871 23.871 0 0 1 12.242 4.432 51.82 51.82 0 0 0-.012-.559C174.879 50.707 139.492 16 96 16c-44.183 0-80 35.817-80 80 0 43.68 35.006 79.183 78.494 79.986a23.871 23.871 0 0 1-4.432-12.242C55.288 160.736 28 131.555 28 96Z" fill="#000"/><path d="M125 149v-15.889c0-2.037 1.3-6.111 6.5-6.111s6.5 4.074 6.5 6.111m0 0V149m0-15.889c0-2.037 1.3-6.111 6.5-6.111s6.5 4.074 6.5 6.111V149" stroke="#000" stroke-width="8" stroke-linecap="round" stroke-linejoin="round"/></g><defs><clipPath id="a"><path fill="#fff" d="M0 0h192v192H0z"/></clipPath></defs></svg>

<?xml version="1.0" encoding="UTF-8" standalone="no"?><svg xmlns:android="http://schemas.android.com/apk/res/android" height="192" width="192" xmlns="http://www.w3.org/2000/svg">
  <g>
    <clip-path android:pathData="M0,0h192v192h-192z"/>
    <path d="M106,122C106,113.16 113.16,106 122,106H154C162.84,106 170,113.16 170,122V154C170,162.84 162.84,170 154,170H122C113.16,170 106,162.84 106,154V122Z" fill="#000000" fill-opacity="0.0" stroke="#000000" stroke-width="12"/>
    <path d="M28,96C28,58.44 58.44,28 96,28C97.51,28 99,28.05 100.48,28.15C75.81,35.37 57.82,59.99 55.3,88.99C55.1,91.29 55,93.63 55,96C55,96.47 55,96.94 55.01,97.42C55.04,99.3 55.14,101.17 55.3,103.01C57.45,127.72 70.83,149.25 90,159.55V140C84.99,138.31 80.2,134.5 76.2,128.67C70.63,120.56 67,109.03 67,96C67,82.97 70.63,71.44 76.2,63.33C81.78,55.2 88.88,51 96,51C103.11,51 110.22,55.2 115.8,63.33C120.5,70.17 123.82,79.45 124.74,90H136.78C135.83,77.19 131.85,65.51 125.7,56.54C120.07,48.34 112.36,42.1 103.3,39.88C107.22,38.65 111.32,38 115.5,38C132.94,38 148.87,49.33 157.43,66.8C160.84,73.95 163.03,81.8 163.74,90.06C168.29,90.39 172.49,91.98 175.99,94.49C175.98,94.31 175.98,94.12 175.97,93.94C174.88,50.71 139.49,16 96,16C51.82,16 16,51.82 16,96C16,139.68 51.01,175.18 94.49,175.99C91.98,172.49 90.39,168.29 90.06,163.74C55.29,160.74 28,131.55 28,96Z" fill="#000000" fill-rule="evenOdd"/>
    <path d="M125,149V133.11C125,131.07 126.3,127 131.5,127C136.7,127 138,131.07 138,133.11M138,133.11V149M138,133.11C138,131.07 139.3,127 144.5,127C149.7,127 151,131.07 151,133.11V149" fill="#000000" fill-opacity="0.0" stroke="#000000" stroke-linecap="round" stroke-linejoin="round" stroke-width="8"/>
  </g>
</svg>
